X: 10
T: The Humours Of Trim
R: jig
M: 6/8
L: 1/8
K: Dmix
|:FEF DED| D2d cAG|FEF DED|A2F GFE|
FEF DED|D2d cAG|FAF GBG|A2F GFE:|
D2d cAd| cAd cAG|F2d cAG|A2F GFE|
D2d cAd|fed cAG|FAF GBG|A2F GFE:|


Tune 88	Setting 12625

